svgs/thin/server.svg

<svg xmlns="http://www.w3.org/2000/svg" viewBox="0 0 512 512"><!-- Font Awesome Pro 6.0.0-alpha2 by @fontawesome - https://fontawesome.com License - https://fontawesome.com/license (Commercial License) --><path d="M464 288H48C21.6 288 0 309.6 0 336V432C0 458.4 21.6 480 48 480H464C490.4 480 512 458.4 512 432V336C512 309.6 490.4 288 464 288ZM496 432C496 449.645 481.645 464 464 464H48C30.355 464 16 449.645 16 432V336C16 318.355 30.355 304 48 304H464C481.645 304 496 318.355 496 336V432ZM464 32H48C21.6 32 0 53.6 0 80V176C0 202.4 21.6 224 48 224H464C490.4 224 512 202.4 512 176V80C512 53.6 490.4 32 464 32ZM496 176C496 193.645 481.645 208 464 208H48C30.355 208 16 193.645 16 176V80C16 62.355 30.355 48 48 48H464C481.645 48 496 62.355 496 80V176ZM352 112C343.168 112 336 119.166 336 128S343.168 144 352 144C360.834 144 368 136.834 368 128S360.834 112 352 112ZM416 112C407.168 112 400 119.166 400 128S407.168 144 416 144C424.834 144 432 136.834 432 128S424.834 112 416 112ZM352 368C343.168 368 336 375.166 336 384C336 392.832 343.168 400 352 400C360.834 400 368 392.832 368 384C368 375.166 360.834 368 352 368ZM416 368C407.168 368 400 375.166 400 384C400 392.832 407.168 400 416 400C424.834 400 432 392.832 432 384C432 375.166 424.834 368 416 368Z"/></svg>

<svg xmlns="http://www.w3.org/2000/svg" viewBox="0 0 512 512"><!--! Font Awesome Pro 6.3.0 by @fontawesome - https://fontawesome.com License - https://fontawesome.com/license (Commercial License) Copyright 2023 Fonticons, Inc. --><path d="M464 288h-416C21.6 288 0 309.6 0 336v96C0 458.4 21.6 480 48 480h416c26.4 0 48-21.6 48-48v-96C512 309.6 490.4 288 464 288zM496 432c0 17.64-14.36 32-32 32h-416c-17.64 0-32-14.36-32-32v-96c0-17.64 14.36-32 32-32h416c17.64 0 32 14.36 32 32V432zM464 32h-416C21.6 32 0 53.6 0 80v96C0 202.4 21.6 224 48 224h416C490.4 224 512 202.4 512 176v-96C512 53.6 490.4 32 464 32zM496 176c0 17.64-14.36 32-32 32h-416c-17.64 0-32-14.36-32-32v-96c0-17.64 14.36-32 32-32h416c17.64 0 32 14.36 32 32V176zM352 112c-8.832 0-16 7.166-16 16s7.168 16 16 16c8.834 0 16-7.166 16-16S360.8 112 352 112zM416 112c-8.832 0-16 7.166-16 16s7.168 16 16 16c8.834 0 16-7.166 16-16S424.8 112 416 112zM352 368c-8.832 0-16 7.166-16 16c0 8.832 7.168 16 16 16c8.834 0 16-7.168 16-16C368 375.2 360.8 368 352 368zM416 368c-8.832 0-16 7.166-16 16c0 8.832 7.168 16 16 16c8.834 0 16-7.168 16-16C432 375.2 424.8 368 416 368z"/></svg>
